X:1
T:Buckley, CM
T:Buckley, CM
T:Silas Jones Vail, 1868
T:Public Domain Courtesy of the Cyber Hymnal™
C:Silas Jones Vail, 1868
Z:Public Domain
Z:Courtesy of the Cyber Hymnal™
%%score ( 1 2 ) 3
L:1/8
Q:1/4=90
M:3/4
K:C
V:1 treble 
V:2 treble 
V:3 bass 
V:1
 [EG]2 | [Ec][CE] [EG][Ec] [Fc][FA] | [EG]4 [Gc]2 | [FB]3 [FB] [FA][FB] | [Ec]4 [Ec]2 | %5
 [Fd][FB] [Ec][EG] [FA][DG] | [EG]4 (c>B) | [FA]3 [FA] [FB][FG] | [Ec]4 |] %9
V:2
 x2 | x6 | x6 | x6 | x6 | x6 | x4 G2 | x6 | x4 |] %9
V:3
 [C,G,]2 | [C,G,][C,G,] [C,G,][C,G,] [C,A,][C,C] | [C,C]4 [E,C]2 | [G,D]3 [G,D] [G,D][G,D] | %4
 [C,C]4 [C,C]2 | [G,B,][G,D] [G,C][G,C] [G,B,][G,B,] | [C,C]4 [E,C]2 | [F,C]3 [D,D] [G,D][G,D] | %8
 [C,C]4 |] %9

